www/assets/icons/sledding.svg

<svg width="24" height="24" viewBox="0 0 24 24" xmlns="http://www.w3.org/2000/svg" fill='currentColor'><path d="M14.0004 3.74707C14.0004 4.84707 13.1004 5.74707 12.0004 5.74707C10.9004 5.74707 10.0004 4.84707 10.0004 3.74707C10.0004 2.64707 10.9004 1.74707 12.0004 1.74707C13.1004 1.74707 14.0004 2.64707 14.0004 3.74707ZM22.8004 19.4871C22.1204 21.5871 19.8604 22.7371 17.7604 22.0571L1.00037 16.6071L1.46037 15.1771L5.39037 16.4571L5.85037 15.0271L1.93037 13.7471L2.39037 12.3171L4.00037 12.8471V8.74707L9.47037 6.39707C9.86037 6.22707 10.3104 6.18707 10.7504 6.32707C11.7004 6.63707 12.2104 7.64707 11.9104 8.59707L10.8604 11.8371L13.0004 11.4971C13.8904 11.3471 14.7604 11.8171 15.1404 12.6371L17.2204 17.1471L19.1504 17.7771L18.6904 19.2071L15.3704 18.1271L14.9004 19.5471L18.2204 20.6271C19.5304 21.0571 20.9404 20.3371 21.3704 19.0171C21.8004 17.7071 21.0804 16.2971 19.7604 15.8671L20.2204 14.4371C22.3304 15.1271 23.4904 17.3871 22.8004 19.4871ZM6.00037 13.4971L7.01037 13.8271C6.79037 13.4071 6.73037 12.9071 6.89037 12.4271L7.92037 9.24707L6.00037 10.0671V13.4971ZM13.9404 17.6571L7.28037 15.4971L6.82037 16.9271L13.4804 19.0871L13.9404 17.6571ZM14.6304 16.2971L13.4504 13.7371L9.48037 14.6271L14.6304 16.2971Z"/></svg>

<svg xmlns="http://www.w3.org/2000/svg" width="24" height="24" viewBox="0 0 24 24" fill='currentColor'><path d="M14 3.747c0 1.1-.9 2-2 2s-2-.9-2-2 .9-2 2-2 2 .9 2 2m8.8 15.74a4.003 4.003 0 0 1-5.04 2.57L1 16.607l.46-1.43 3.93 1.28.46-1.43-3.92-1.28.46-1.43 1.61.53v-4.1l5.47-2.35c.39-.17.84-.21 1.28-.07.95.31 1.46 1.32 1.16 2.27l-1.05 3.24 2.14-.34c.89-.15 1.76.32 2.14 1.14l2.08 4.51 1.93.63-.46 1.43-3.32-1.08-.47 1.42 3.32 1.08c1.31.43 2.72-.29 3.15-1.61.43-1.31-.29-2.72-1.61-3.15l.46-1.43c2.11.69 3.27 2.95 2.58 5.05M6 13.497l1.01.33c-.22-.42-.28-.92-.12-1.4l1.03-3.18-1.92.82zm7.94 4.16-6.66-2.16-.46 1.43 6.66 2.16zm.69-1.36-1.18-2.56-3.97.89z"/></svg>
